X:1
T:Everton, 87.87 D
T:Henry Thomas Smart, 1867
T:Everton, 87.87 D
T:Public Domain
C:Henry Thomas Smart, 1867
Z:Public Domain
%%score ( 1 2 ) ( 3 4 )
L:1/8
M:4/4
K:Eb
V:1 treble 
V:2 treble 
V:3 bass 
V:4 bass 
V:1
 [EG]2 [DA]2 [EB]2 [Ge]2 | [Ec]2 [Ad]2 [Ge]2 [EB]2 | [EA]2 [FB]2 [EG]2 [B,E]2 | [CF]2 (DE) [DF]4 | %4
 [EG]2 [DA]2 [EB]2 [Ge]2 | [Ec]2 [Ad]2 [Ge]2 [EB]2 | [EA]2 [FB]2 [EG]2 [B,E]2 | [CF]2 (DE) [DF]4 | %8
 [DF]2 F2 [EG]2 [EB]2 | [FB]2 [F=A]2 [FB]2 [Fd]2 | [Gd]2 [Gd]2 [Gc]2 (G=A) | [GB]2 [^F=A]2 G4 | %12
 [DB]2 [DB]2 [EB]2 [Ee]2 | [EA]2 [Ec]2 [Ec]2 [EB]2 | E2 [DF]2 [EG]2 [EB]2 | [EA]2 [DF]2 E4 |] %16
V:2
 x8 | x8 | x8 | x2 F2 x4 | x8 | x8 | x8 | x2 F2 x4 | x2 F2 x4 | x8 | x6 G2 | x4 G4 | x8 | x8 | %14
 E2 x6 | x4 E4 |] %16
V:3
 [E,B,]2 [F,B,]2 [G,B,]2 [E,B,]2 | [A,C]2 [F,A,]2 [E,B,]2 [G,B,]2 | %2
 [C,C]2 [D,F,]2 [E,B,]2 [G,B,]2 | [F,B,]2 [F,,=A,]2 [B,,B,]4 | [E,B,]2 [F,B,]2 [G,B,]2 [E,B,]2 | %5
 [A,C]2 [F,A,]2 [E,B,]2 [G,B,]2 | [C,C]2 [D,F,]2 [E,B,]2 [G,B,]2 | [F,B,]2 [F,,=A,]2 [B,,B,]4 | %8
 [B,,B,]2 [D,B,]2 [E,B,]2 [G,B,]2 | [F,C]2 (F,E,) [D,B,]2 [B,,B,]2 | B,2 [B,,D]2 [C,E]2 [E,C]2 | %11
 [D,D]2 [D,C]2 [G,B,]4 | [G,B,]2 [F,A,]2 [E,G,]2 [_D,G,]2 | [C,A,]2 [A,,A,]2 [E,A,]2 [E,G,]2 | %14
 [C,G,]2 [B,,B,]2 [E,B,]2 [G,,B,]2 | [A,,C]2 (B,A,) [E,G,]4 |] %16
V:4
 x8 | x8 | x8 | x8 | x8 | x8 | x8 | x8 | x8 | x2 C2 x4 | B,2 x6 | x8 | x8 | x8 | x8 | x2 B,,2 x4 |] %16

